X: 1570
T: Pençgâh Seyir
C: Şefik Gürmeriç
O: Turkey
F: http://compmusic.upf.edu/node/140
N: pencgah--seyir--sofyan--1--sefik_gurmeric
N: makam= pencgah
N: form= seyir
N: usul= sofyan = 4/4
M: 4/4
L: 1/16
K: C _1/4B ^f  
Q: 1/4=60
%%MIDI tuningsystem comma53
d8 e2d2 d2c2  | d6e2 c2_2/4B2 A4  | _2/4B2c2 B4 c2d2 c4  | \
w:   |   |   | 
d6e2 d2c2 d4  | 
w:   | 
z4 d2e2 d4 e2f2  | e4 f2g2 =f3e d4  | \
w:   |   | 
a6g2 f3e d4  | ede=f e2d2 d8  | 
w:   |   | 
z4 d4 c4 d4  | e8 e2f2 g2a2  | g4 =f2e2 e2d2 d2c2  | \
w:   |   |   | 
_2/4B3A B2c2 B8  | 
w:   | 
A2_2/4B2 c2e2 d4 c2B2  | _2/4B3A G2A2 G4 A2B2  | \
w:   |   | 
c4 _2/4B2A2 A2G2 G2F2  | 
w:   | 
F16  | |


